jekyll/assets/img/logo_gro_letter_white.svg

<?xml version="1.0" encoding="UTF-8"?>
<svg width="66px" height="43px" viewBox="0 0 66 43" version="1.1" xmlns="http://www.w3.org/2000/svg" xmlns:xlink="http://www.w3.org/1999/xlink">
    <!-- Generator: Sketch 48.1 (47250) - http://www.bohemiancoding.com/sketch -->
    <title>logo_gro_letter_white</title>
    <desc>Created with Sketch.</desc>
    <defs></defs>
    <g id="Logo" stroke="none" stroke-width="1" fill="none" fill-rule="evenodd">
        <g id="logo_gro_letter_white" fill="#FFFFFF">
            <path d="M26.046875,27.6005859 C25.3782519,28.4723351 24.4515033,29.1324847 23.2666016,29.5810547 C22.0816998,30.0296246 20.7360101,30.2539062 19.2294922,30.2539062 C17.6806563,30.2539062 16.3095763,29.9026728 15.1162109,29.2001953 C13.9228456,28.4977178 13.0024446,27.4926823 12.3549805,26.1850586 C11.7075163,24.8774349 11.3710939,23.3518967 11.3457031,21.6083984 L11.3457031,20.1611328 C11.3457031,17.3681501 12.0143162,15.186694 13.3515625,13.6166992 C14.6888088,12.0467044 16.555001,11.2617188 18.9501953,11.2617188 C21.0068462,11.2617188 22.6402934,11.7695262 23.8505859,12.7851562 C25.0608784,13.8007863 25.7887358,15.2649644 26.0341797,17.1777344 L22.8857422,17.1777344 C22.5302717,14.9518118 21.2395945,13.8388672 19.0136719,13.8388672 C17.5748626,13.8388672 16.4809608,14.3572539 15.7319336,15.394043 C14.9829064,16.430832 14.5957033,17.9521384 14.5703125,19.9580078 L14.5703125,21.3798828 C14.5703125,23.3772886 14.9913695,24.9282171 15.8334961,26.0327148 C16.6756227,27.1372126 17.8456956,27.6894531 19.34375,27.6894531 C20.9856853,27.6894531 22.1536424,27.317061 22.8476562,26.5722656 L22.8476562,22.9541016 L19.0390625,22.9541016 L19.0390625,20.5166016 L26.046875,20.5166016 L26.046875,27.6005859 Z M34.345942,22.8779297 L30.7658639,22.8779297 L30.7658639,30 L27.5539498,30 L27.5539498,11.515625 L34.0539498,11.515625 C36.186773,11.515625 37.8329154,11.9938103 38.9924264,12.9501953 C40.1519374,13.9065803 40.7316842,15.2903555 40.7316842,17.1015625 C40.7316842,18.3372458 40.4333473,19.3719034 39.8366647,20.2055664 C39.239982,21.0392294 38.4084474,21.6803363 37.3420358,22.1289062 L41.493403,29.8349609 L41.493403,30 L38.0529733,30 L34.345942,22.8779297 Z M30.7658639,20.3007812 L34.0666451,20.3007812 C35.1499839,20.3007812 35.9963296,20.0278348 36.6057076,19.4819336 C37.2150857,18.9360324 37.5197701,18.1891323 37.5197701,17.2412109 C37.5197701,16.2509716 37.2383602,15.4850288 36.6755319,14.9433594 C36.1127035,14.40169 35.2727054,14.1223959 34.1555123,14.1054688 L30.7658639,14.1054688 L30.7658639,20.3007812 Z M56.5082903,21.2402344 C56.5082903,23.0514413 56.1951424,24.6404554 55.5688372,26.0073242 C54.942532,27.374193 54.0475214,28.4236617 52.8837786,29.1557617 C51.7200358,29.8878617 50.3806937,30.2539062 48.8657122,30.2539062 C47.3676578,30.2539062 46.0325475,29.8878617 44.8603411,29.1557617 C43.6881347,28.4236617 42.7825448,27.3805406 42.1435442,26.0263672 C41.5045436,24.6721937 41.1808164,23.1106859 41.1723528,21.3417969 L41.1723528,20.3007812 C41.1723528,18.4980379 41.4918483,16.9069079 42.1308489,15.5273438 C42.7698495,14.1477796 43.6712076,13.0919633 44.8349504,12.3598633 C45.9986932,11.6277633 47.3338036,11.2617188 48.8403215,11.2617188 C50.3468395,11.2617188 51.6819498,11.6235315 52.8456926,12.347168 C54.0094354,13.0708044 54.9086777,14.1118096 55.5434465,15.4702148 C56.1782153,16.8286201 56.4998267,18.4091707 56.5082903,20.2119141 L56.5082903,21.2402344 Z M53.2963762,20.2753906 C53.2963762,18.2272033 52.9091731,16.657232 52.1347551,15.5654297 C51.3603372,14.4736274 50.2622037,13.9277344 48.8403215,13.9277344 C47.4522938,13.9277344 46.3668554,14.4715115 45.5839739,15.559082 C44.8010924,16.6466526 44.401194,18.1848859 44.3842669,20.1738281 L44.3842669,21.2402344 C44.3842669,23.2714945 44.7799335,24.8414658 45.5712786,25.9501953 C46.3626237,27.0589248 47.4607572,27.6132812 48.8657122,27.6132812 C50.2875943,27.6132812 51.3814961,27.07162 52.1474504,25.9882812 C52.9134048,24.9049425 53.2963762,23.322276 53.2963762,21.2402344 L53.2963762,20.2753906 Z" id="GRO-Copy"></path>
        </g>
    </g>
</svg>

<svg width="66" height="43" viewBox="0 0 66 43" xmlns="http://www.w3.org/2000/svg"><title>logo_gro_letter_white</title><path d="M26.047 27.6c-.669.872-1.595 1.532-2.78 1.981-1.185.449-2.531.673-4.038.673-1.548 0-2.92-.351-4.113-1.054-1.193-.702-2.114-1.707-2.761-3.015-.647-1.308-.984-2.833-1.01-4.577v-1.447c0-2.793.67-4.974 2.007-6.544 1.337-1.57 3.203-2.355 5.598-2.355 2.057 0 3.69.508 4.9 1.523 1.21 1.016 1.939 2.48 2.184 4.393h-3.148c-.356-2.226-1.646-3.34-3.872-3.34-1.44 0-2.533.52-3.282 1.556-.75 1.037-1.136 2.558-1.162 4.564v1.422c0 1.997.421 3.548 1.263 4.653.843 1.104 2.013 1.656 3.51 1.656 1.643 0 2.81-.372 3.505-1.117v-3.618h-3.809v-2.437h7.008V27.6zm8.299-4.722h-3.58V30h-3.212V11.516h6.5c2.133 0 3.779.478 4.938 1.434 1.16.957 1.74 2.34 1.74 4.152 0 1.235-.299 2.27-.895 3.104-.597.833-1.429 1.474-2.495 1.923l4.151 7.706V30h-3.44l-3.707-7.122zm-3.58-2.577h3.3c1.084 0 1.93-.273 2.54-.82.61-.545.914-1.292.914-2.24 0-.99-.282-1.756-.844-2.298-.563-.541-1.403-.82-2.52-.838h-3.39v6.196zm25.742.94c0 1.81-.313 3.4-.94 4.766-.625 1.367-1.52 2.417-2.684 3.149-1.164.732-2.503 1.098-4.018 1.098-1.498 0-2.833-.366-4.006-1.098-1.172-.732-2.077-1.775-2.716-3.13-.64-1.354-.963-2.915-.972-4.684V20.3c0-1.803.32-3.394.959-4.774s1.54-2.435 2.704-3.167c1.164-.732 2.499-1.098 4.005-1.098 1.507 0 2.842.362 4.006 1.085 1.163.724 2.063 1.765 2.697 3.123.635 1.359.957 2.94.965 4.742v1.028zm-3.212-.966c0-2.048-.387-3.618-1.161-4.71-.775-1.091-1.873-1.637-3.295-1.637-1.388 0-2.473.544-3.256 1.631-.783 1.088-1.183 2.626-1.2 4.615v1.066c0 2.031.396 3.601 1.187 4.71.792 1.109 1.89 1.663 3.295 1.663 1.422 0 2.515-.541 3.281-1.625.766-1.083 1.15-2.666 1.15-4.748v-.965z" fill="#FFF" fill-rule="evenodd"/></svg>
